resources/assets/icons/brands/opensea.svg

<svg viewBox="0 0 20 20" fill="none" xmlns="http://www.w3.org/2000/svg">
<path fill="none" d="M1.07086 10.1363L1.13384 10.0385L4.93184 4.17036C4.98736 4.08442 5.11785 4.09333 5.15986 4.18664C5.79434 5.59111 6.34187 7.33777 6.08536 8.42517C5.97586 8.87256 5.67585 9.47851 5.33834 10.0385C5.29486 10.12 5.24684 10.2 5.19584 10.277C5.17187 10.3126 5.13134 10.3333 5.08784 10.3333H1.18185C1.07683 10.3333 1.01535 10.2207 1.07086 10.1363Z" stroke="currentColor" stroke-width="2"/>
<path fill="none" d="M19 12.2267V13.1556C19 13.2089 18.967 13.2563 18.919 13.277C18.625 13.4015 17.6185 13.8578 17.2 14.4326C16.132 15.9007 15.316 18 13.492 18H5.88248C3.1855 18 1 15.8341 1 13.1615V13.0755C1 13.0044 1.0585 12.9467 1.13049 12.9467H5.37249C5.45649 12.9467 5.51801 13.0237 5.51051 13.1052C5.4805 13.3778 5.5315 13.6563 5.66199 13.9096C5.91399 14.4148 6.43601 14.7304 6.99999 14.7304H9.1V12.1111H7.024C6.91748 12.1111 6.85451 11.9896 6.91599 11.9037C6.93851 11.8696 6.96401 11.8341 6.991 11.7941C7.18748 11.5185 7.468 11.0904 7.74698 10.6029C7.9375 10.2741 8.122 9.92295 8.2705 9.57038C8.30051 9.50667 8.32449 9.4415 8.3485 9.37776C8.38899 9.26519 8.431 9.15999 8.46098 9.05483C8.49099 8.96594 8.515 8.87259 8.53901 8.78518C8.60951 8.48593 8.63949 8.16889 8.63949 7.83999C8.63949 7.71111 8.63349 7.5763 8.62148 7.44739C8.61551 7.30666 8.59751 7.16592 8.5795 7.02519C8.56749 6.90073 8.54501 6.77778 8.521 6.6489C8.49099 6.46074 8.44901 6.27408 8.40099 6.08592L8.38451 6.01482C8.3485 5.88594 8.31849 5.76296 8.2765 5.63408C8.15799 5.22962 8.02149 4.83555 7.87751 4.46667C7.82501 4.32 7.76499 4.17927 7.705 4.03853C7.61649 3.82666 7.52649 3.63408 7.44399 3.45185C7.402 3.36889 7.36599 3.29333 7.33001 3.21629C7.28949 3.12888 7.24751 3.0415 7.20549 2.9585C7.17551 2.8948 7.14099 2.83555 7.11698 2.7763L6.86051 2.30815C6.8245 2.24444 6.88449 2.16889 6.95499 2.18814L8.56 2.61778H8.56451C8.5675 2.61778 8.57051 2.61926 8.57051 2.61926L8.78198 2.67703L9.01451 2.74221L9.1 2.76592V1.82371C9.1 1.36889 9.46899 1 9.92499 1C10.153 1 10.36 1.09184 10.5085 1.24148C10.657 1.39112 10.75 1.59556 10.75 1.82371V3.22222L10.921 3.26961C10.9345 3.27407 10.948 3.28 10.96 3.28887C11.002 3.31999 11.062 3.36594 11.1385 3.42221C11.1985 3.46963 11.263 3.52741 11.341 3.58665C11.4955 3.70964 11.68 3.86816 11.8825 4.05036C11.9365 4.09631 11.989 4.1437 12.037 4.19112C12.298 4.4311 12.5905 4.7126 12.8695 5.02371C12.9475 5.1111 13.024 5.19998 13.102 5.29333C13.18 5.38814 13.2625 5.48149 13.3345 5.57483C13.429 5.69926 13.531 5.82813 13.6195 5.96297C13.6615 6.02668 13.7095 6.09185 13.75 6.15556C13.864 6.32593 13.9645 6.50223 14.0605 6.67851C14.101 6.75999 14.143 6.84888 14.179 6.9363C14.2855 7.17185 14.3695 7.41186 14.4235 7.65186C14.44 7.70371 14.452 7.76001 14.458 7.81038V7.82221C14.476 7.89334 14.482 7.9689 14.488 8.04594C14.512 8.29184 14.5 8.53777 14.446 8.78518C14.4235 8.89038 14.3935 8.98962 14.3575 9.09482C14.3215 9.19556 14.2855 9.30073 14.239 9.4C14.149 9.60591 14.0425 9.81186 13.9165 10.0044C13.876 10.0755 13.828 10.1511 13.78 10.2222C13.7275 10.2978 13.6735 10.3689 13.6255 10.4385C13.5595 10.5274 13.489 10.6207 13.417 10.7037C13.3525 10.7911 13.2865 10.8785 13.2145 10.9556C13.114 11.0726 13.018 11.1837 12.9175 11.2904C12.8575 11.36 12.793 11.4311 12.727 11.4948C12.6625 11.5659 12.5965 11.6296 12.5365 11.6889C12.436 11.7881 12.352 11.8652 12.2815 11.9289L12.1165 12.0785C12.0925 12.0993 12.061 12.1111 12.028 12.1111H10.75V14.7304H12.358C12.718 14.7304 13.06 14.6044 13.336 14.3733C13.4305 14.2919 13.843 13.9392 14.3305 13.4074C14.347 13.3896 14.368 13.3763 14.392 13.3704L18.8335 12.1022C18.916 12.0785 19 12.1407 19 12.2267Z" stroke="currentColor" stroke-width="2"/>
</svg>

<svg viewBox="0 0 20 20" fill="none" xmlns="http://www.w3.org/2000/svg"><path d="m1.07 10.136.064-.097L4.932 4.17a.13.13 0 0 1 .228.017c.634 1.404 1.182 3.15.925 4.238-.11.448-.41 1.054-.747 1.614a2.938 2.938 0 0 1-.142.238.13.13 0 0 1-.108.056H1.182c-.105 0-.167-.112-.111-.197Z" stroke="currentColor" stroke-width="2"/><path d="M19 12.227v.929c0 .053-.033.1-.081.121-.294.125-1.3.58-1.719 1.156C16.132 15.9 15.316 18 13.492 18h-7.61C3.186 18 1 15.834 1 13.162v-.087a.13.13 0 0 1 .13-.128h4.242c.084 0 .146.077.139.158-.03.273.02.551.151.805.252.505.774.82 1.338.82h2.1v-2.619H7.024a.132.132 0 0 1-.108-.207l.075-.11c.196-.276.477-.704.756-1.191.19-.329.375-.68.524-1.033.03-.063.053-.129.077-.192.041-.113.083-.218.113-.323.03-.09.054-.182.078-.27.07-.3.1-.616.1-.945 0-.129-.006-.264-.018-.393a5.01 5.01 0 0 0-.042-.422 4.326 4.326 0 0 0-.058-.376 6.274 6.274 0 0 0-.12-.563l-.016-.071c-.037-.13-.067-.252-.108-.38a14.251 14.251 0 0 0-.4-1.168c-.052-.147-.112-.288-.172-.428-.089-.212-.179-.405-.261-.587a8.058 8.058 0 0 1-.114-.236 8.358 8.358 0 0 0-.125-.258c-.03-.063-.064-.122-.088-.182l-.256-.468c-.037-.064.023-.14.094-.12l1.605.43h.005l.006.001.211.058.233.065.085.024v-.942a.824.824 0 0 1 1.65 0v1.398l.171.048c.014.004.027.01.039.019l.178.133c.06.048.125.105.203.165a12.245 12.245 0 0 1 .696.604c.261.24.553.522.832.833.079.087.155.176.233.27.078.094.16.187.232.28.095.125.197.254.286.389.042.064.09.129.13.193.114.17.214.346.31.523.041.081.083.17.119.257.107.236.19.476.245.716a.884.884 0 0 1 .034.158v.012c.018.071.024.147.03.224a2.364 2.364 0 0 1-.13 1.049c-.037.1-.072.206-.119.305-.09.206-.197.412-.323.604-.04.072-.088.147-.136.218l-.154.216a4.537 4.537 0 0 1-.209.266c-.065.087-.13.175-.203.252-.1.117-.196.228-.296.334-.06.07-.125.141-.191.205a7.652 7.652 0 0 1-.446.434l-.165.15a.135.135 0 0 1-.088.032H10.75v2.62h1.608c.36 0 .702-.127.978-.358.095-.081.507-.434.995-.966a.125.125 0 0 1 .061-.037l4.442-1.268a.13.13 0 0 1 .166.125Z" stroke="currentColor" stroke-width="2"/></svg>
